web/packages/design/src/ResourceIcon/assets/zapier.svg

<svg width="72" height="72" viewBox="0 0 72 72" fill="none" xmlns="http://www.w3.org/2000/svg">
<g clip-path="url(#clip0_15941_7403)">
<path d="M45.0015 36.0175C45.0018 38.6132 44.5331 41.1876 43.6181 43.6168C41.1881 44.5318 38.613 45.0008 36.0164 45.0013H35.9847C33.3882 45.0017 30.813 44.533 28.383 43.6179C27.4666 41.1883 26.9971 38.613 26.9973 36.0163V35.9824C26.9973 33.3071 27.4883 30.745 28.3774 28.3808C30.8077 27.4644 33.3839 26.9957 35.9813 26.9974H36.0107C38.6872 26.9974 41.2482 27.4883 43.6124 28.3808C44.5284 30.8105 44.9972 33.3858 44.9959 35.9824V36.0163H44.9993L45.0015 36.0175ZM71.5012 29.9995H50.4879L65.3451 15.1414C63.0088 11.8604 60.1406 8.99292 56.8589 6.65752L41.9993 21.5156V0.501604C40.0235 0.169245 38.0234 0.00163031 36.0198 0.000488281H35.9813C33.9429 0.000488281 31.9463 0.174691 30.0007 0.501604V21.5156L15.1378 6.65639C13.5009 7.82137 11.9647 9.1215 10.5451 10.5431L10.5383 10.5499C9.11877 11.9705 7.8198 13.5067 6.65487 15.1425L21.5178 29.9995H0.499976C0.499976 29.9995 0 33.9474 0 35.988V36.0129C0 38.0536 0.173067 40.0535 0.501116 42.0003H21.5189L6.65373 56.8562C8.99174 60.1368 11.8602 63.0048 15.1412 65.3423L30.0018 50.4853V71.5005C31.9452 71.8263 33.9384 71.9982 35.9746 72.0005H36.0254C38.0267 71.9986 40.0245 71.8314 41.9982 71.5005V50.4853L56.86 65.3457C58.497 64.1797 60.0343 62.8796 61.4561 61.459H61.4594C62.8783 60.0369 64.1769 58.4996 65.3417 56.863L50.4845 42.0014H71.5023C71.8281 40.0558 72 38.0626 72 36.0265V35.9745C72 33.9723 71.8326 31.9757 71.5023 30.0018L71.5012 29.9995Z" fill="#FF4A00"/>
</g>
<defs>
<clipPath id="clip0_15941_7403">
<rect width="72" height="72" fill="white" transform="translate(0 0.000488281)"/>
</clipPath>
</defs>
</svg>

<svg xmlns="http://www.w3.org/2000/svg" width="72" height="72" fill="none" viewBox="0 0 72 72"><g clip-path="url(#a)"><path fill="#ff4a00" d="M45.002 36.018c0 2.595-.469 5.17-1.384 7.599A21.6 21.6 0 0 1 36.016 45h-.031a21.6 21.6 0 0 1-7.602-1.383 21.5 21.5 0 0 1-1.386-7.602v-.034c0-2.675.491-5.237 1.38-7.601a21.5 21.5 0 0 1 7.604-1.384h.03c2.676 0 5.237.491 7.601 1.384a21.5 21.5 0 0 1 1.384 7.601v.034h.003zM71.502 30H50.487l14.858-14.86a36.2 36.2 0 0 0-8.486-8.483l-14.86 14.858V.502A36 36 0 0 0 36.02 0h-.038a36 36 0 0 0-5.98.502v21.014L15.138 6.656a36 36 0 0 0-4.593 3.887l-.007.007a36 36 0 0 0-3.883 4.592L21.518 30H.5S0 33.947 0 35.988v.025c0 2.04.173 4.04.501 5.987H21.52L6.654 56.856a36.3 36.3 0 0 0 8.487 8.486l14.86-14.857v21.016c1.944.325 3.937.497 5.974.5h.05c2.002-.002 4-.17 5.973-.5V50.485l14.862 14.86a36.3 36.3 0 0 0 4.596-3.886h.003a36.4 36.4 0 0 0 3.883-4.596L50.484 42.001h21.018c.326-1.945.498-3.938.498-5.974v-.053a36 36 0 0 0-.498-5.972z"/></g><defs><clipPath id="a"><path fill="#fff" d="M0 0h72v72H0z"/></clipPath></defs></svg>
